Flat-Remix-Blue-Dark/apps/scalable/kali-maintaining-access-trans.svg

<svg width="512" height="512" version="1.1" viewBox="0 0 135.47 135.47" xmlns="http://www.w3.org/2000/svg"><g transform="translate(0 -161.53)"><path d="m22.602 169.74v98.529l16.539 20.533h88.191l-24.055-29.863v-89.199z" color="#000000" color-rendering="auto" dominant-baseline="auto" image-rendering="auto" opacity=".3" shape-rendering="auto" solid-color="#000000" stroke="#000" stroke-width="5.2917" style="font-feature-settings:normal;font-variant-alternates:normal;font-variant-caps:normal;font-variant-ligatures:normal;font-variant-numeric:normal;font-variant-position:normal;isolation:auto;mix-blend-mode:normal;shape-padding:0;text-decoration-color:#000000;text-decoration-line:none;text-decoration-style:solid;text-indent:0;text-orientation:mixed;text-transform:none;white-space:normal"/><path d="m35.832 182.96h54.216v80.636l9.6406 11.968h-54.216l-9.6406-11.968z" fill="#fff" stroke="#fff" stroke-width="26.458"/><path transform="matrix(.26458 0 0 .26458 0 161.53)" d="m135.43 81v111.46h-0.00586l0.00586 7.8555v185.45l36.438 45.232h204.91l-36.438-45.232v-39.564c4.8174 0.00121 9.024-0.01172 12.59-0.07421 7.6772-0.13418 12.327-0.10257 17.504-1.8301 2.5884-0.86374 6.152-2.7278 8.1348-6.6289 1.9828-3.9012 1.3502-7.7716 0.64843-10.084-1.4035-4.6249-3.3033-7.0923-5.2109-10.777-3.9012-7.5363-8.4924-13.17-14.514-16.58-3.1022-1.757-7.696-3.5561-13.338-4.0742-1.6846-0.1547-3.6522-0.25534-5.8144-0.33203v-78.217c0.22548-1.9466 0.28485-4.1061 0-6.1894v-130.42h-204.91zm204.91 234.84c1.6163 0.05973 2.9619 0.13285 3.9824 0.22656 3.8294 0.3515 2.9245 0.20398 5.3164 1.5586 2.527 1.4312 3.4685 2.3505 6.5332 8.252-1.6553 0.11339-1.348 0.21265-3.5957 0.25195-3.3511 0.05868-7.4602 0.06857-12.236 0.06641v-10.355z"/><path transform="matrix(.26458 0 0 .26458 0 161.53)" d="m196.69 96.688a26.846 26.846 0 0 0-26.846 26.848 26.846 26.846 0 0 0 26.846 26.846 26.846 26.846 0 0 0 26.846-26.846 26.846 26.846 0 0 0-26.846-26.848zm41.641 55.014c-11.118-0.02627-22.353 1.5118-33.594 5.75-14.985 7.1214-25.026 19.416-35.207 35.184l-7.1543 11.078-26.947-0.78125c0.00276 9.7719 0.00289 19.544 0.00391 29.316l16.773 1.748c14.183 1.4784 17.386 1.4276 20.75-0.33789 5.1507-2.7035 12.834-10.882 21.27-22.643 3.7055-5.166 6.7383-8.6306 6.7383-7.6973s4.2944 11.717 9.5449 23.965l9.5469 22.27-30.783 64.791c-16.931 35.635-31.126 65.61-31.545 66.611v0.00195c-0.97134 2.3188 25.277 2.5441 33.404 0.28711 5.3892-1.4966 5.6821-1.978 23.439-38.219 9.8908-20.186 21.845-45.335 26.564-55.889 4.7197-10.553 8.7115-19.058 8.8691-18.9 4.0551 23.548-0.46932 52.319 21.842 67.941h49.02c56.423 0 52.569 1.2856 44.258-14.77-3.5227-6.805-6.271-10.052-10.559-12.48-5.4942-3.1117-7.3678-3.2846-36.012-3.3066l-30.215-0.02734c-0.11717-11.935-1.9191-23.782-2.8145-35.676-3.0743-31.117-5.7461-40.59-19.828-70.312l-7.7832-16.434 29.348 0.82812 9.3398 16.742c5.136 9.2082 11.404 18.873 13.93 21.479 7.1023 7.3277 15.57 5.9036 19.4-3.2637 1.9815-4.7425 1.7729-5.3798-9.002-27.605-11.628-23.986-25.508-31.071-40.539-34.221-13.663-2.7789-27.762-5.3962-42.057-5.4297h-0.00196z" fill="#fff" stroke-width="1.4562"/><path d="m45.358 264.39c-1.0746 4e-3 -1.8188 0.0868-1.8188 0.27354 0 0.23349 2.2979 2.7735 5.1066 5.6447l5.107 5.2202h11.129l-1.3278-1.3956c-2.4486-2.5741-9.4053-8.3507-10.717-8.8986-1.1524-0.48151-5.1149-0.85326-7.479-0.84433z" fill="#fff" opacity=".7" stroke-width=".38529"/></g></svg>

<?xml version="1.0" encoding="UTF-8" standalone="no"?>
<!-- Created with Inkscape (http://www.inkscape.org/) -->

<svg
   xmlns:dc="http://purl.org/dc/elements/1.1/"
   xmlns:cc="http://creativecommons.org/ns#"
   xmlns:rdf="http://www.w3.org/1999/02/22-rdf-syntax-ns#"
   xmlns:svg="http://www.w3.org/2000/svg"
   xmlns="http://www.w3.org/2000/svg"
   xmlns:sodipodi="http://sodipodi.sourceforge.net/DTD/sodipodi-0.dtd"
   xmlns:inkscape="http://www.inkscape.org/namespaces/inkscape"
   width="512"
   height="512"
   viewBox="0 0 135.46666 135.46667"
   version="1.1"
   id="svg8"
   inkscape:version="0.92.4 (5da689c313, 2019-01-14)"
   sodipodi:docname="kali-maintaining-access-trans.svg">
  <defs
     id="defs2" />
  <sodipodi:namedview
     id="base"
     pagecolor="#ffffff"
     bordercolor="#666666"
     borderopacity="1.0"
     inkscape:pageopacity="0.0"
     inkscape:pageshadow="2"
     inkscape:zoom="0.49497475"
     inkscape:cx="957.68978"
     inkscape:cy="522.20255"
     inkscape:document-units="px"
     inkscape:current-layer="layer1"
     showgrid="false"
     units="px"
     inkscape:pagecheckerboard="true"
     inkscape:window-width="1920"
     inkscape:window-height="1080"
     inkscape:window-x="0"
     inkscape:window-y="0"
     inkscape:window-maximized="0" />
  <metadata
     id="metadata5">
    <rdf:RDF>
      <cc:Work
         rdf:about="">
        <dc:format>image/svg+xml</dc:format>
        <dc:type
           rdf:resource="http://purl.org/dc/dcmitype/StillImage" />
        <dc:title></dc:title>
      </cc:Work>
    </rdf:RDF>
  </metadata>
  <g
     inkscape:label="Capa 1"
     inkscape:groupmode="layer"
     id="layer1"
     transform="translate(0,-161.53331)">
    <path
       style="opacity:1;fill:#000000;fill-opacity:1;stroke:#ffffff;stroke-width:26.45833206;stroke-miterlimit:4;stroke-dasharray:none;stroke-opacity:1"
       d="m 35.831603,182.96463 h 54.21611 v 80.63615 l 9.64062,11.96802 h -54.21611 l -9.64062,-11.96802 z"
       id="rect1021-9"
       inkscape:connector-curvature="0"
       sodipodi:nodetypes="ccccccc" />
    <path
       style="opacity:1;fill:#000000;fill-opacity:1;stroke:none;stroke-width:14.56222343;stroke-miterlimit:4;stroke-dasharray:none;stroke-opacity:1"
       d="M 135.42578 81 L 135.42578 192.46094 L 135.41992 192.46094 L 135.42578 200.31641 L 135.42578 385.76758 L 171.86328 431 L 376.77539 431 L 340.33789 385.76758 L 340.33789 346.20312 C 345.15525 346.20433 349.36189 346.1914 352.92773 346.12891 C 360.60489 345.99473 365.25475 346.02634 370.43164 344.29883 C 373.02009 343.43509 376.58362 341.57107 378.56641 337.66992 C 380.54918 333.76877 379.91659 329.89837 379.21484 327.58594 C 377.81138 322.96108 375.91157 320.49367 374.00391 316.80859 C 370.10267 309.27233 365.51148 303.63875 359.49023 300.22852 C 356.38803 298.47153 351.79428 296.67243 346.15234 296.1543 C 344.46775 295.9996 342.50017 295.89896 340.33789 295.82227 L 340.33789 217.60547 C 340.56337 215.65892 340.62274 213.49941 340.33789 211.41602 L 340.33789 81 L 135.42578 81 z M 340.33789 315.84375 C 341.95423 315.90348 343.29982 315.9766 344.32031 316.07031 C 348.14969 316.42181 347.24478 316.27429 349.63672 317.62891 C 352.16374 319.0601 353.10521 319.97943 356.16992 325.88086 C 354.51461 325.99425 354.82193 326.09351 352.57422 326.13281 C 349.2231 326.19149 345.11405 326.20138 340.33789 326.19922 L 340.33789 315.84375 z "
       transform="matrix(0.26458333,0,0,0.26458333,0,161.53331)"
       id="rect1021" />
    <path
       style="fill:#ffffff;fill-opacity:1;stroke-width:1.4562223"
       d="M 196.6875 96.6875 A 26.845873 26.845873 0 0 0 169.8418 123.53516 A 26.845873 26.845873 0 0 0 196.6875 150.38086 A 26.845873 26.845873 0 0 0 223.5332 123.53516 A 26.845873 26.845873 0 0 0 196.6875 96.6875 z M 238.32812 151.70117 C 227.21022 151.6749 215.97524 153.21298 204.73438 157.45117 C 189.74972 164.57256 179.7086 176.8668 169.52734 192.63477 L 162.37305 203.71289 L 135.42578 202.93164 C 135.42854 212.70353 135.42867 222.47612 135.42969 232.24805 L 152.20312 233.99609 C 166.38592 235.47449 169.58919 235.42366 172.95312 233.6582 C 178.10379 230.95474 185.78705 222.77612 194.22266 211.01562 C 197.92818 205.84958 200.96094 202.38504 200.96094 203.31836 C 200.96094 204.25168 205.25534 215.03557 210.50586 227.2832 L 220.05273 249.55273 L 189.26953 314.34375 C 172.33891 349.9791 158.14395 379.95392 157.72461 380.95508 L 157.72461 380.95703 C 156.75327 383.27581 183.00179 383.50109 191.12891 381.24414 C 196.5181 379.74749 196.81097 379.26611 214.56836 343.02539 C 224.45919 322.83927 236.41305 297.69014 241.13281 287.13672 C 245.85254 276.58337 249.84427 268.07865 250.00195 268.23633 C 254.05705 291.78422 249.53263 320.55566 271.84375 336.17773 L 320.86328 336.17773 C 377.28614 336.17773 373.43233 337.46337 365.12109 321.4082 C 361.59839 314.6032 358.85011 311.35608 354.5625 308.92773 C 349.06835 305.81605 347.19472 305.64317 318.55078 305.62109 L 288.33594 305.59375 C 288.21877 293.65842 286.41682 281.8115 285.52148 269.91797 C 282.44722 238.80142 279.77539 229.32775 265.69336 199.60547 L 257.91016 183.17188 L 272.58398 183.58594 L 287.25781 184 L 296.59766 200.74219 C 301.73366 209.9504 308.00209 219.61532 310.52734 222.2207 C 317.62961 229.54838 326.09741 228.12431 329.92773 218.95703 C 331.90927 214.21456 331.70065 213.57723 320.92578 191.35156 C 309.29765 167.36581 295.41748 160.28053 280.38672 157.13086 C 266.72348 154.35194 252.62464 151.73467 238.33008 151.70117 L 238.32812 151.70117 z "
       transform="matrix(0.26458333,0,0,0.26458333,0,161.53331)"
       id="path1096" />
    <path
       style="fill:#ffffff;fill-opacity:1;stroke-width:0.38529214;opacity:0.7"
       d="m 45.357803,264.38534 c -1.07457,0.004 -1.81885,0.0868 -1.81885,0.27354 0,0.23349 2.29787,2.77354 5.10662,5.64469 l 5.107,5.22025 h 5.56417 5.56453 l -1.32783,-1.39555 c -2.44859,-2.57414 -9.40533,-8.35067 -10.71669,-8.8986 -1.15239,-0.48151 -5.11491,-0.85326 -7.47895,-0.84433 z"
       id="path1011" />
  </g>
</svg>
